src/actions/22/bordertool.svg

<svg version="1.1" viewBox="0 0 22 22" xmlns="http://www.w3.org/2000/svg">
 <defs>
  <style id="current-color-scheme" type="text/css">.ColorScheme-Text {
        color:#2e3440;
      }</style>
 </defs>
 <path class="ColorScheme-Text" transform="translate(0 -1030.4)" d="m4 1034.4v14h14v-14h-14zm1 1h12v12h-12v-12z" fill="currentColor"/>
 <path d="m3 3v16h16v-16h-16zm1 1h14v14h-14v-14z" fill="#d08770"/>
</svg>

<svg xmlns="http://www.w3.org/2000/svg" viewBox="0 0 22 22">
  <defs id="defs3051">
    <style type="text/css" id="current-color-scheme">
      .ColorScheme-Text {
        color:#363636;
      }
      </style>
  </defs>
 <path 
     style="fill:currentColor;fill-opacity:1;stroke:none" 
     d="m 4,1034.3622 0,14 14,0 0,-14 -14,0 z m 1,1 12,0 0,12 -12,0 0,-12 z"
     class="ColorScheme-Text"
     transform="translate(0,-1030.3622)"
     />
 <path 
     style="fill:#ff6600;fill-opacity:1;stroke:none" 
     d="M 3 3 L 3 19 L 19 19 L 19 3 L 3 3 z M 4 4 L 18 4 L 18 18 L 4 18 L 4 4 z "
     />
</svg>
